image/icon-bookmarks.svg

<svg width="14" height="16" viewBox="0 0 14 16" fill="none" xmlns="http://www.w3.org/2000/svg">
<path d="M14 15C14 15.55 13.632 15.741 13.182 15.426L7.819 11.661C7.369 11.346 6.632 11.346 6.182 11.661L0.818 15.426C0.368 15.741 0 15.55 0 15V1C0 0.45 0.45 0 1 0H13C13.55 0 14 0.45 14 1V15Z" fill="white"/>
</svg>

<svg width="14" height="16" fill="none" xmlns="http://www.w3.org/2000/svg"><path d="M14 15c0 .55-.37.74-.82.43l-5.36-3.77a1.54 1.54 0 00-1.64 0L.82 15.43c-.45.31-.82.12-.82-.43V1a1 1 0 011-1h12a1 1 0 011 1v14z" fill="#fff" opacity=".3"/></svg>
